X:471
T:Hot Time in the Old Town Tonight
C:Theodore August Metz, 1896
S:Colin Hume's website,  colinhume.com  - chords can also be printed below the stave.
Q:1/2=120
M:2/2
R:Reel
L:1/4
K:G
"G"B2 B2 | "/"B3 ^A/B/ | "G"cB ^AB | "G"G4 | "G"d2 d2 | "/"d3 ^c/d/ | "G"ed ^cd | "G"BD GA |
"G"B2 B2 | "/"B3 ^A/B/ | "B7"cB ^AB | "Em"GG FG | "A7"BA2E | "D7"BA2D | "G"G2- "C"G2- | "G"G2 z2 |]

